!!!OTL: Shida zhenggangge
!!!ARE: Asia, China,ÿHubei Wufeng
!! I, 414
!!!SCT: C2159
!!!YEM: Copyright 1995, estate of Helmut Schaffrath.
**kern
*ICvox
*Ivox
*M4/4
*k[]
*C:
{8dd
16cc
16dd
8ee
8dd
2cc
=1
8a
8cc
8dd
8ee
2cc}
=2
{8.dd
16ee
8dd
8cc
2a
=3
8a
8cc
8dd
8cc
2a}
=4
{8a
8cc
8dd
8ee
16a
16cc
4dd
8ee
=5
8cc
8a
8dd
8cc
2a}
=6
{8ee
8ee
8ee
8dd
4cc
4a
=7
4dd
8dd
16cc
16dd
4.ee
8gg}
=8
{8dd
16cc
16cc
8dd
8dd
8ee
16ee
16gg
4ee
=9
8ee
16ee
16cc
2.dd}
=10
{4a
4cc
8a
8ee
8ee
8dd
=11
8dd
8dd
8a
8dd
8cc
4.cc}
=12
{4a
4cc
4ee
8dd
8cc
=13
8dd
8dd
8a
8cc
8dd
4.cc}
=14
{8dd
16cc
16dd
8ee
8dd
2cc
=15
8a
8cc
8dd
8ee
2cc}
=16
{8dd
8ee
8dd
8cc
2a
=17
4a
8dd
8cc
2a}
=18
{8a
8cc
8dd
8ee
16a
16cc
4dd
8ee
=19
8cc
8a
8dd
8cc
2a}
==
!!!AGN: Shange
!!!ONB: ESAC (Essen Associative Code) Database: SENGANSU
!!!AMT: simple quadruple
!!!AIN: vox
!!!EED: Helmut Schaffrath
!!!EEV: 1.0
*-
